!!!!SEGMENT: pl-sa--l-1636--046_anonim--keyboard-piece.krn
!!!cenid: 17xx:753
!!!COM: Anonim
!!!COM-rismid: pe30004985
!!!CDT:
!!!CNT:
!!!OTL: Keyboard piece
!!!PDT:
!!!AGN: Secular
!!!SMS-siglum: PL-SA
!!!SMS-shelfmark: L 1636
!!!SMS-shelfwork: 046 W
!!!SMS-variant:
!!!SMS-altvar:
!!!NIFC-rismid: 1001076539
!!!URL-scan: http://repozytorium.nifc.pl/skany/pl-sa-nut--l1636
!!!ONB-nifc: 13v, skan 0017, s. 1-2
**kern	**kern
*part2	*part1
*staff2	*staff1
*group1	*group1
*clefF4	*clefC1
*k[]	*k[]
*a:	*a:
*M2/2	*M2/2
*met(c|)	*met(c|)
=1	=1
1AA 1E 1A	1a 1cc 1ee
=2	=2
*^	*^
*2\right	*2\right	*2\right	*2\right
*	*^	*	*^
2A/	2AA\	4E/	1ee	2.a\	2.cc/
.	.	4D/	.	.	.
2E/	2EE/	2ryy	.	.	.
!	!	!	!	!LO:TX:a:t=P:problem:4\right:global	!
.	.	.	.	4g#X\	4b/
*	*v	*v	*	*	*
*	*	*	*v	*v
=3	=3	=3	=3
!	!	!LO:SIC:s=2g#:v	!
1E	1EE	2b/ 2dd	2g\
.	.	2a/ 2cc	2e\
=4	=4	=4	=4
1E	1EE	2a/ 2b	1e
.	.	2g#X/ 2b	.
*	*	*v	*v
=5	=5	=5
2E/ 2A	2AA\	16r
!	!	!LO:TX:a:t=P:problem:16\right:global
.	.	16ee\LL
.	.	16cc\
.	.	16dd\JJ
.	.	16ee\LL
!	!	!LO:TX:a:t=♯
.	.	16ff#y\
.	.	16gg\
.	.	16ee\JJ
4c/	4A\	16aa\LL
.	.	16gg\
.	.	16ff#\
.	.	16ee\JJ
4d/	4B\	16dd\LL
.	.	16ee\
.	.	16cc\
.	.	16dd\JJ
*v	*v	*
=6	=6
*	*^
*	*	*^
!LO:TX:a:t=P:problem:mixed beam	!	!	!
!LO:TX:a:t=P:problem:16\right:global	!	!	!
16e\LL	4b/	4g#X\	2ee/
16E/	.	.	.
!LO:TX:b:t=♯	!	!	!
16F#y/	.	.	.
!LO:TX:b:t=♯	!	!	!
16G#y/JJ	.	.	.
16A\LL	4cc/	4a\	.
16B\	.	.	.
16c\	.	.	.
16A\JJ	.	.	.
16e\LL	4b/	4g#X\	2ryy
16d\	.	.	.
16c\	.	.	.
16B\JJ	.	.	.
!	!LO:TX:a:t=P:problem:8\right:global	!	!
16c\LL	8a\L	4ryy	.
16d\	.	.	.
16B\	8b\J	.	.
16c\JJ	.	.	.
!!LO:LB:g=original
=7	=7	=7	=7
!LO:TX:a:t=P:problem:mixed beam	!	!	!
16A\LL	2cc/	2e\	4a/
16AA/	.	.	.
16C/	.	.	.
16D/JJ	.	.	.
16E\LL	.	.	4g#X/
16F#X\	.	.	.
16G#X\	.	.	.
16E\JJ	.	.	.
16A\LL	4a/ 4cc	4e\	2ryy
!LO:SIC:s=16Gn:v	!	!	!
16G#\	.	.	.
!LO:SIC:s=16Fn:v	!	!	!
16F#\	.	.	.
16E\JJ	.	.	.
16D\LL	8b\L	4ryy	.
16E\	.	.	.
16C\	8a\J	.	.
16D\JJ	.	.	.
*	*v	*v	*v
=8	=8
*^	*
!	!	!LO:TX:a:t=P:problem:mixed beam
4B/	2BB\	16g#X\LL
.	.	16dd\
.	.	16b\
.	.	16cc\JJ
16D/LL	.	16f#X/LL
16E/	.	16g#X/
16F#X/	.	16a/
!LO:SIC:s=16G#:v	!	!
16G/JJ	.	16b/JJ
*v	*v	*
!LO:TX:a:t=P:problem:8\right:global	!LO:TX:a:t=P:problem:mixed beam
8A\L	16cc\LL
.	16dd\
!LO:SIC:s=8G#:v	!
8G\J	16ee\
.	16e/JJ
8F#X\L	16a\LL
.	16f#X\
8E\J	16b\
.	16g#X\JJ
=9	=9
*	*^
16r	2e/ 2a	2c\
16A\LL	.	.
16G\	.	.
16F\JJ	.	.
16E\LL	.	.
16C\	.	.
16D\	.	.
16E\JJ	.	.
!LO:TX:a:t=P:problem:mixed beam	!	!
16AA/LL	2e/ 2a	2c\
16E\	.	.
16D\	.	.
16C\JJ	.	.
16BB/LL	.	.
16AA/	.	.
16GG/	.	.
16FF/JJ	.	.
=10	=10	=10
1EE 1E	16b\LL	2ryy
.	16a\	.
!	!LO:TX:a:t=♯	!
.	16g#y\	.
!	!LO:TX:a:t=♯	!
.	16f#y\JJ	.
.	16g#/LL	.
.	16d/	.
.	16c/	.
.	16a/JJ	.
.	2b/	8a\L
!	!	!LO:TX:a:t=♯
.	.	8f#y\
.	.	8g#\
.	.	8d\J
*	*v	*v
=11	=11
1AA	1c 1e 1a
==	==
*-	*-
!!!system-decoration: [(g1)]
!!!ENC:Anna Matuszewska
!!!END:2020-12-08
!!!ENC:Andrzej Borzym
!!!END:2020-06-11
